!!!COM:	Bach, Johann Sebastian
!!!CDT:	1685/02/21/-1750/07/28/
!!!OTL@@DE:	Vater unser im Himmelreich
!!!SCT:	BWV 90/5
!!!PC#:	267
!!!AGN:	chorale
**kern	**kern	**kern	**kern
*ICvox	*ICvox	*ICvox	*ICvox
*Ibass	*Itenor	*Ialto	*Isoprn
*I"Bass	*I"Tenor	*I"Alto	*I"Soprano
*clefF4	*clefGv2	*clefG2	*clefG2
*k[b-]	*k[b-]	*k[b-]	*k[b-]
*d:	*d:	*d:	*d:
*M4/4	*M4/4	*M4/4	*M4/4
*met(c)	*met(c)	*met(c)	*met(c)
*MM100	*MM100	*MM100	*MM100
4D	4d	4f	4a
=1	=1	=1	=1
4C#	4A	4e	4a
4D	4A	4d	4f
4E	4G	8dL	4g
.	.	8c#J	.
8DL	8FL	4d	4a
8EJ	8GJ	.	.
=2	=2	=2	=2
8FL	4A	4d	4f
8GJ	.	.	.
8AL	8AL	4c#	4e
8AAJ	8GJ	.	.
4D;	4F;	4A;	4d;
4CnX	4A	4e	4a
=3	=3	=3	=3
4BB-	8B-L	4.d	4a
.	8cnXJ	.	.
4B-	4d	.	4g
.	.	8e	.
8AL	8cL	4f	4cc
8GJ	8dJ	.	.
8FL	4e	4c#	4a
8EJ	.	.	.
=4	=4	=4	=4
8DL	4A	4d	4f
8CJ	.	.	.
4BB-	4B-	4d	4g
4AA;	4E;	4c#;	4a;
8AL	8cnXL	4e	4a
8GJ	8B-J	.	.
=5	=5	=5	=5
8FL	4A	4f	4cc
8EJ	.	.	.
8DL	8fL	4a	4dd
8CJ	8eJ	.	.
4BB	4d	4g	4ff
4C#	4e	8aL	4ee
.	.	8gJ	.
=6	=6	=6	=6
4D	4A	4f	4dd
4AA	4A	4e	4cc#
4D;	4A;	4f#;	4dd;
4G	4B	4g	4dd
=7	=7	=7	=7
8cL	4c	8gL	4ee
8BJ	.	8aJ	.
8AL	4f	4b	4dd
8G#J	.	.	.
8AL	4e	4a	4cc
8GJ	.	.	.
8FL	4d	4g#	4b
8EJ	.	.	.
=8	=8	=8	=8
8FL	4c	4.a	4a
8EJ	.	.	.
8DL	8fL	.	4b
8EJ	8eJ	8g#	.
4AA;	4c#;	4e;	4a;
4GG#	4B	4e	4dd
=9	=9	=9	=9
8AAL	4cnX	8eL	4cc
8AJ	.	8fJ	.
8GnXL	4d	4gnX	4b
8FJ	.	.	.
4E	4c	4g	8ccL
.	.	.	8b-J
8FL	4c	4f	4a
8EJ	.	.	.
=10	=10	=10	=10
8DL	4.d	4.f	4a
8CJ	.	.	.
8BB-L	.	.	4g
8CJ	8c	8e	.
4D-;	4A-;	4f;	4f;
4C	4e-	4f#	4a
=11	=11	=11	=11
4GG	4.d	8gL	4b-
.	.	8fnXJ	.
4AA	.	4e	4a
.	8c#	.	.
8BB-L	[2d	8dL	4a
8AAJ	.	8c#J	.
8BBL	.	8dL	4g
8C#XJ	.	8eJ	.
=12	=12	=12	=12
8DL	8dL]	8AL	4f
8FJ	8AJ	8dJ	.
8GL	8B-XL	8dL	4e
8AJ	8AJ	8c#J	.
2D;	2F#;	2A;	2d;
==	==	==	==
*-	*-	*-	*-
!!!hum2abc: -Q ''
!!!title: @{PC#}. @{OTL@@DE}
!!!YOR1: 371 vierstimmige Choralges&auml;nge von Johann Sebastian Bach, 
!!!YOR2: 4th ed. by Alfred D&ouml;rffel (Leipzig: Breitkopf und H&auml;rtel, 
!!!YOR2: c.1875). 178 pp. Plate "V.A.10".  reprint: J.S. Bach, 371 Four-Part 
!!!YOR4: Chorales (New York: Associated Music Publishers, Inc., c.1940).
!!!SMS: B&H, 4th ed, Alfred D&ouml;rffel, c.1875, plate V.A.10
!!!EED:  Craig Stuart Sapp
!!!EEV:  2009/05/22
